images/fadelogoball.svg

<svg fill="none" height="178" viewBox="0 0 176 178" width="176" xmlns="http://www.w3.org/2000/svg" xmlns:xlink="http://www.w3.org/1999/xlink"><mask id="a" height="178" maskUnits="userSpaceOnUse" width="176" x="0" y="0"><path d="m87.9998 177.969c48.5732 0 87.9502-39.839 87.9502-88.9843 0-49.1449-39.377-88.9847-87.9502-88.9847-48.5735 0-87.9499953 39.8398-87.9499953 88.9847 0 49.1453 39.3764953 88.9843 87.9499953 88.9843z" fill="#fff"/></mask><mask id="b" height="178" maskUnits="userSpaceOnUse" width="176" x="0" y="0"><path d="m87.9998 177.969c48.5732 0 87.9502-39.839 87.9502-88.9843 0-49.1449-39.377-88.9847-87.9502-88.9847-48.5735 0-87.9499953 39.8398-87.9499953 88.9847 0 49.1453 39.3764953 88.9843 87.9499953 88.9843z" fill="#fff"/></mask><g mask="url(#a)"><path d="m150.93 151.908c34.346-34.346 34.019-90.3608-.732-125.1115-34.75-34.75069-90.7649-35.07826-125.1115-.7316-34.34659 34.3466-34.01902 90.3611.7317 125.1121 34.7507 34.75 90.7648 35.078 125.1118.731z" fill="#fff"/><g mask="url(#b)"><path d="m-33.157 51.8-20.8254 20.8255 147.4934 147.4935 20.825-20.826z" fill="#ff9800"/><path d="m-12.3386 30.7312-20.8255 20.8254 147.4931 147.4934 20.826-20.825z" fill="#ffa726"/><path d="m8.4905 9.66037-20.8255 20.82543 147.493 147.4932 20.826-20.825z" fill="#ffb74d"/><path d="m29.3235-11.4109-20.82545 20.82545 147.49295 147.49345 20.826-20.826z" fill="#ffcc80"/><path d="m50.1409-32.4822-20.8255 20.8255 147.4936 147.4937 20.825-20.826z" fill="#ffe0b2"/><path d="m70.971-53.5511-20.8255 20.8255 147.4935 147.4936 20.825-20.8257z" fill="#fff3e0"/></g></g></svg>

<svg width="176" height="178" viewBox="0 0 176 178" fill="none" xmlns="http://www.w3.org/2000/svg">
<mask id="mask0" mask-type="alpha" maskUnits="userSpaceOnUse" x="0" y="0" width="176" height="178">
<path d="M87.9998 177.969C136.573 177.969 175.95 138.13 175.95 88.9847C175.95 39.8398 136.573 0 87.9998 0C39.4263 0 0.0498047 39.8398 0.0498047 88.9847C0.0498047 138.13 39.4263 177.969 87.9998 177.969Z" fill="white"/>
</mask>
<g mask="url(#mask0)">
<path d="M150.93 151.908C185.276 117.562 184.949 61.5472 150.198 26.7965C115.448 -7.95419 59.4331 -8.28176 25.0865 26.0649C-9.26009 60.4115 -8.93252 116.426 25.8182 151.177C60.5689 185.927 116.583 186.255 150.93 151.908Z" fill="white"/>
<mask id="mask1" mask-type="alpha" maskUnits="userSpaceOnUse" x="0" y="0" width="176" height="178">
<path d="M87.9998 177.969C136.573 177.969 175.95 138.13 175.95 88.9847C175.95 39.8398 136.573 0 87.9998 0C39.4263 0 0.0498047 39.8398 0.0498047 88.9847C0.0498047 138.13 39.4263 177.969 87.9998 177.969Z" fill="white"/>
</mask>
<g mask="url(#mask1)">
<path d="M-33.157 51.8L-53.9824 72.6255L93.511 220.119L114.336 199.293L-33.157 51.8Z" fill="#FF9800"/>
<path d="M-12.3386 30.7312L-33.1641 51.5566L114.329 199.05L135.155 178.225L-12.3386 30.7312Z" fill="#FFA726"/>
<path d="M8.4905 9.66037L-12.335 30.4858L135.158 177.979L155.984 157.154L8.4905 9.66037Z" fill="#FFB74D"/>
<path d="M29.3235 -11.4109L8.49805 9.41455L155.991 156.908L176.817 136.082L29.3235 -11.4109Z" fill="#FFCC80"/>
<path d="M50.1409 -32.4822L29.3154 -11.6567L176.809 135.837L197.634 115.011L50.1409 -32.4822Z" fill="#FFE0B2"/>
<path d="M70.971 -53.5511L50.1455 -32.7256L197.639 114.768L218.464 93.9423L70.971 -53.5511Z" fill="#FFF3E0"/>
</g>
</g>
</svg>
